X: 1
T: Khasene Tants
D: Klezmatics "Shvaygn = Toyt"
S: transcr. Steve Rauch
Z: 2017 John Chambers <jc:trillian.mit.edu>
M: 4/4
L: 1/8
P: AAB CCB AAB CCAA
K: Cm
G "A"|\
"Cm"c2-c3 edc | ^fg- g6 |\
cedc eg^fe  ^fg- g6 |\
"Fm"afff f>g a/g/f | "Cm"gee e>f g/f/e |
"G7"de^fg [1 fedc | d7 :|\
[2 fede | "Cm"c7 |]\
g "B"|\
"Cm"^fg2g fg2g | ^fg=ab agfe |\
ce2e de2e |
de^fg g/f/e g2 |\
"Cm"^fg2g fg2g | ^fg=ab c'bag |\
=ag^fe fedc | "G"d/e/^f/g/ f/e/d/e "Cm"c4 |]
"C"|:\
"Fm"f4- fgac' | =baba bagf |\
ga=bc' bagf | c'3=b (3d'c'b (3agf |\
"Fm"f4- fgac' |
=baba bagf | ga=bc' \
[1 bagc' | zc=Bc ^cde=e :|[2 =baga | f7 |]
